X: 952
T: Günlerce Uykusuz, Günlerce Yorgun
C: Sinan Sipahi
O: Turkey
F: http://compmusic.upf.edu/node/140
N: muhayyerkurdi--fantezi--duyek--gunlerce_uykusuz--sinan_sipahi
N: makam= muhayyerkurdi
N: form= fantezi
N: usul= duyek = 8/4
M: 8/4
L: 1/16
K: C _B   
Q: 1/4=204
%%MIDI tuningsystem comma53
B2 a4 g2 a4 f4  | d8 z2 d2 e2 ^f2  | \
w:  ARANAĞME  |   | 
g2 g4 ^f2 g4 e4  | c8 z2 c2 d2 e2  | \
w:   |   | 
f2 f4 e2 f4 d4  | 
w:   | 
B8 Bc AB G4  | z2 _e4 d2 c4 B4  | A6 Bc de fg a4  | \
w:   |   |   | 
z2 a6 f3e d4  | 
w:  Gün ler *  ce   | 
d2 e4 d2 c4 z4  | d4 B4 c2 B4 A2  | A6 Bc de fg a4  | \
w:  *  uy ku suz   |  gün ler ce  yor  |  gun   SAZ  | 
z2 a6 b4 g4  | 
w:  Kal mış san   | 
a4 _1/4b4 c'8  | z4 b2 a2 b2 g4 b2  | \
w:  sev dâ nın   |  kı yı la rın  | 
a6 gf ed cB A4  | z2 a6 f3e d4  | 
w:  da   SAZ  |  Gün ler *  ce   | 
d2 e4 d2 c4 z4  | d4 B4 c2 B4 A2  | A6 Bc de fg a4  | \
w:  *  uy ku suz   |  gün ler ce  yor  |  gun   SAZ  | 
z2 a6 b4 g4  | 
w:  Kal mış san   | 
a4 _1/4b4 c'8  | z4 b2 a2 b2 g4 b2  | \
w:  sev dâ nın   |  kı yı la rın  | 
a6 f2 d2 f2 a4  | z2 g4 a2 b2 g6  | z2 a2 f2 e2 d8  | 
w:  da   SAZ  |  Dal ga la ra   |  yaz *  *  san   | 
g2 e8 d2 e2 d2  | c8 c2 d2 _e4  | _e4 d4 c8  | \
w:  u mut *  la rı  |  nı  ah    |  Rüz gâr lar   | 
c2 d4 c2 B2 BA B4  | z2 B4 A2 c6 B2  | 
w:  ge tir *  se   |  sev gi ni  ba  | 
A6 a2 d2 f2 a4  | z2 g4 a2 b2 g6  | z2 a2 f2 e2 d8  | \
w:  na   SAZ  |  Dal ga la ra   |  yaz *  *  san   | 
g2 e8 d2 e2 d2  | c8 c2 d2 _e4  | 
w:  u mut *  la rı  |  nı  ah    | 
_e4 d4 c8  | c2 d4 c2 B2 BA B4  | z2 B4 A2 c6 B2  | \
w:  Rüz gâr lar   |  ge tir *  se   |  sev gi ni  ba  | 
A6 B2 c2 d2 c2 B2  | 
w:  na   SAZ  | 
A2 A4 B2 c8  | z2 d4 c2 e8  | z2 e4 d2 d2 c2 e2 d2  | \
w:  *  Bel ki  bir   |  dam la  su   |  bel ki  bir  *  gü lü  | 
c6 d2 e2 f2 e2 d2  | 
w:  cük   SAZ  | 
c2 c4 d4 e2 f4  | g2 a14  | z2 g4 a2 b4 c'2 b2  | \
w:  *  Bel ki  ak  bir   |  kö pük   |  bel ki  bir  ö pü  | 
a6 f2 d2 f2 a4  | z2 g4 a2 b4 c'4  | 
w:  cük   SAZ  |  Bel ki  bir   | 
z2 a4 g2 f8  | z2 a4 g2 f2 g6  | e6 f2 g2 a2 g2 f2  | \
w:  fır tı na   |  bel ki  e sen   |  yel   SAZ  | 
e2 a4 f2 e4 d4  | c2 e6 A2 c2 e4  | 
w:  *  Bel ki  sev gi   |  se li  SAZ  | 
d2 c6 d2 c2 B2 A2  | B8 A2 c2 B4  | z2 A4 B2 c4 d4  | \
w:  o lur  ge lir  |  sin   SAZ  |  Bel ki  sev gi   | 
c2 e6 A2 c2 e4  | d2 c6 _e2 d2 c2 B2  | 
w:  se li  SAZ  |  o lur  ge lir  | 
A16  | B2 a4 g2 a4 f4  | d8 z2 d2 e2 ^f2  | \
w:  sin    |  ARANAĞME  |   | 
g2 g4 ^f2 g4 e4  | c8 z2 c2 d2 e2  | 
w:   |   | 
f2 f4 e2 f4 d4  | B8 Bc AB G4  | z2 _e4 d2 c4 B4  | \
w:   |   |   | 
A8 a2 ^g2 a4  | a2 ^g6 a8  | 
w:  SAZ  |  Ka bar sın   | 
z2 f4 e2 d8  | a4 a4 z2 g4 a2  | b8 g2 a2 b4  | \
w:  dal ga lar   |  gel sin  fır tı  |  na   SAZ  | 
g4 ^f4 g4 z4  | f4 e4 f8  | z2 g4 a2 a2 g2 f2 e2  | 
w:  Bir  mar tı   |  çır pın sın   |  poy raz  e lin  | 
e8 a2 ^g2 a4  | a2 ^g6 a8  | z2 f4 e2 d8  | \
w:  de   SAZ  |  Ka bar sın   |  dal ga lar   | 
a4 a4 z2 g4 a2  | b8 g2 a2 b4  | g4 ^f4 g4 z4  | 
w:  gel sin  fır tı  |  na   SAZ  |  Bir  mar tı   | 
f4 e4 f8  | z2 g4 a2 a2 g2 f2 e2  | e8 f2 e2 f4  | \
w:  çır pın sın   |  poy raz  e lin  |  de    | 
d4 e4 f4 z4  | z4 g2 f2 e4 z4  | 
w:  Bir  sev gi   |  gü lü şü   | 
e2 d6 d2 c2 e2 d2  | c8 c2 d2 _e4  | \
w:  ya kın *  *  lı ğı  |  na  ah    | 
_e2 e6 d8  | d2 e4 d2 B2 BA B4  | z2 B6 A2 d4 B2  | 
w:  Sı ğın san   |  ge tir *  se   |  sev gi ni  ba  | 
A8 f2 e2 f4  | d4 e4 f4 z4  | z4 g2 f2 e4 z4  | \
w:  na   SAZ  |  Bir  sev gi   |  gü lü şü   | 
e2 d6 d2 c2 e2 d2  | c8 c2 d2 _e4  | 
w:  ya kın *  *  lı ğı  |  na  ah    | 
_e2 e6 d8  | d2 e4 d2 B2 BA B4  | z2 B6 A2 d4 B2  | \
w:  Sı ğın san   |  ge tir *  se   |  sev gi ni  ba  | 
A6 B2 d2 e2 d2 B2  | 
w:  na   SAZ  | 
A2 A4 B2 c8  | z2 d4 c2 e8  | z2 e4 d2 d2 c2 e2 d2  | \
w:  *  Bel ki  bir   |  dam la  su   |  bel ki  bir  *  gü lü  | 
c6 d2 e2 f2 e2 d2  | 
w:  cük   SAZ  | 
c2 c4 d4 e2 f4  | g2 a14  | z2 g4 a2 b4 c'2 b2  | \
w:  *  Bel ki  ak  bir   |  kö pük   |  bel ki  bir  ö pü  | 
a6 f2 d2 f2 a4  | z2 g4 a2 b4 c'4  | 
w:  cük   SAZ  |  Bel ki  bir   | 
z2 a4 g2 f8  | z2 a4 g2 f2 g6  | e6 f2 g2 a2 g2 f2  | \
w:  fır tı na   |  bel ki  e sen   |  yel   SAZ  | 
e2 a4 f2 e4 d4  | c2 e6 A2 c2 e4  | 
w:  *  Bel ki  sev gi   |  se li  SAZ  | 
d2 c6 d2 c2 B2 A2  | B8 A2 c2 B4  | z2 A4 B2 c4 d4  | \
w:  o lur  ge lir  |  sin   SAZ  |  Bel ki  sev gi   | 
c2 e6 A2 c2 e4  | d2 c6 _e2 d2 c2 B2  | 
w:  se li  SAZ  |  o lur  ge lir  | 
A4 _e2 dc c2 BB A4  | |


